X:1
T:Title
%%score { ( 1 3 6 ) | ( 2 4 5 ) }
L:1/8
Q:1/4=100
M:4/4
K:Ab
V:1 treble nm="Grand Piano"
V:3 treble 
V:6 treble 
V:2 bass 
V:4 bass 
V:5 bass 
V:1
 A2 B2 c2 [Ad]2 | z2 d2 z4 | A2 [EA]2 [FA]2 [Fd]2 | z2 B2 z4 | A2 B2 c2 [Ad]2 | z2 d2 z4 | %6
w: Samuel~Webb,~Sr. * * *||||||
 A2 [EA]2 [FA]2 [Fd]2 | z2 B2 z4 | z4 E2 E2 | [CEA]2 [CEA]2 A2 G2 | B2 e2 =dcBA | %11
w: |||||
 [EG]2 [=DF]2 [G,E]4 | [B,EG]2 [EG]2 [A,EA]2 [A,CE]2 | [A,F]2 [C=EG]2 [CFA]2 [_EGB]2 | %14
w: |||
 .[EAc]2 .[A,EA]2 [A,DF]2 [Fd]2 |[M:8/4] z2 B2 z4 z8 |[M:4/4] [DA]4 [CA]4 |] %17
w: |||
V:2
 [A,CE]2 [G,B,E]2 [A,E]2 [F,A,]2 | [E,B,]2 [F,A,F][G,B,] [A,E]2 [E,G,E]2 | %2
 [F,A,C]2 [C,A,]2 [D,A,]2 [B,,A,]2 | E4 z4 | [A,CE]2 [G,B,E]2 [A,E]2 [F,A,]2 | %5
 [E,B,]2 [F,A,F][G,B,] [A,E]2 [E,G,E]2 | [F,A,C]2 [C,A,]2 [D,A,]2 [B,,A,]2 | E4 z4 | %8
 [D,A,D]2 [D,A,D]2 [A,C]2 .[A,C]2 | A,,B,,C,D, [E,CE]2 [E,B,E]2 | %10
 [G,B,E]2 [E,G,E]2 [A,E]2 [F,CF]2 | B,4 z4 | z2 B,2 z4 | D,2 C,2 F,2 E,2 | %14
 z[K:treble] B[K:bass] z G D,2 [B,,A,]2 |[M:8/4] .[C,A,]2 [E,G,]2 [A,,A,]4 z8 | %16
[M:4/4] [D,F,]4 [A,,E,]4 |] %17
V:3
 x8 | [Ge]2 z E c2 B2 | x8 | c2 z D [CA]4 | x8 | [Ge]2 z E c2 B2 | x8 | c2 z D [CA]4 | %8
 F2 F2 z B, z D | x8 | x8 | x8 | x8 | x8 | x8 |[M:8/4] E4 z4 z8 |[M:4/4] x8 |] %17
V:4
 x8 | x8 | x8 | [E,A,]2 [E,G,]2 [A,,A,]4 | x8 | x8 | x8 | [E,A,]2 [E,G,]2 [A,,A,]4 | x8 | x8 | x8 | %11
 z2 z A, E,4 | E,4 z4 | x8 | A,2[K:treble][K:bass] C,2 z4 |[M:8/4] x16 |[M:4/4] x8 |] %17
V:5
 x8 | x8 | x8 | x8 | x8 | x8 | x8 | x8 | x8 | x8 | x8 | z2 B,,2 z4 | z2 z D, C,2 A,,2 | x8 | %14
 x[K:treble] x[K:bass] x6 |[M:8/4] x16 |[M:4/4] x8 |] %17
V:6
 x8 | x8 | x8 | x8 | x8 | x8 | x8 | x8 | x8 | x8 | x8 | x8 | x8 | x8 | x8 | %15
[M:8/4] .c- .[D,c]2 D [CA]4 z8 |[M:4/4] x8 |] %17

